editor/icons/Vector4.svg

<svg clip-rule="evenodd" fill-rule="evenodd" height="12" stroke-linejoin="round" stroke-miterlimit="2" viewBox="0 0 16 12" width="16" xmlns="http://www.w3.org/2000/svg"><path d="m11 3v5h3v3h2v-9h-2v4h-1v-3zm-10 1v6h2c1.646 0 3-1.354 3-3v-3h-2v3c0 .549-.451 1-1 1v-4zm5 3c0 1.646 1.354 3 3 3h1v-2h-1c-.549 0-1-.451-1-1s.451-1 1-1h1v-2h-1c-1.646 0-3 1.354-3 3z" fill="#f066bd"/><path d="m11 3v5h3v3h2v-9h-2v4h-1v-3z" fill="#fff" fill-opacity=".39216"/></svg>

<svg height="12" viewBox="0 0 16 12" width="16" xmlns="http://www.w3.org/2000/svg"><path d="M11 3v5h3v3h2V2h-2v4h-1V3zM1 4v6h2a3 3 0 0 0 3-3V4H4v3a1 1 0 0 1-1 1V4zm9 6V8H9a1 1 0 0 1 0-2h1V4H9a3 3 0 0 0 0 6z" fill="#f066bd"/><path d="M11 3v5h3v3h2V2h-2v4h-1V3z" fill="#fff" fill-opacity=".4"/></svg>
